X: 4337
T: SEE WHAT GRACE. (Martha.)
%R: air, march, polka
B: James Kerr "Merry Melodies" v.4 p.35 #337
Z: 2016 John Chambers <jc:trillian.mit.edu>
M: 2/4
L: 1/8
K: G
|:\
Bz Bz | d3 B | Bcce | eA A2 |\
A2 Bc | d3 d |[1 gddB | BAAz :|[2 gdcA | G3z H|]\
Bz ^cz | d3 B | ^A^cBA | (B^c) dz |\
dz ez | f3 d | ^cgfe | ed^c"_D.C."=c |]

%%sep 1 1 500
%%sep 1 1 500

